!!!OTL@@DE: Ich hab' den ganzen Vormittag
!!!COM: M&uuml;ller, Wenzel
!!!ODT: 1794
!!!OMD: Lebhaft
!!!ONB: Dichter unbekannt
!!!OCL: Erk, Ludwig
!!!GCO: Deutscher Liederschatz, Band 1
**kern	**kern	**kern
*staff3	*staff2	*staff1
*Ipiano	*Ipiano	*Ivox
*>[A,A,B,B]	*>[A,A,B,B]	*>[A,A,B,B]
*>norep[A,B]	*>norep[A,B]	*>norep[A,B]
*>A	*>A	*>A
*clefF4	*clefG2	*clefG2
*k[b-]	*k[b-]	*k[b-]
*F:	*F:	*F:
*M6/8	*M6/8	*M6/8
*MM112	*MM112	*MM112
8r	8r	8c/
=1	=1	=1
4FF/	(8A/L	4f/
.	8c/	.
8r	8f/J)	8f/
4F\	(8A/L	4cc\
.	8c/	.
8r	8f/J)	8cc\
=2	=2	=2
4FF/	(8A/L	4a/
.	8c/	.
8r	8f/J)	8a/
4F\	(8A/L	4f/
.	8c/	.
8r	8f/J)	8f/
=3	=3	=3
4C/	(8B-/L	4g/
.	8c/	.
8r	8e/J)	8g/
4CC/	(8B-/L	8cc\L
.	8c/	8b-\J
8r	8e/J)	8g/
=4	=4	=4
4FF/	(8A/L	4f/
.	8c/	.
8r	8f/J)	8r
4F\	4r	4r
=:|!|:	=:|!|:	=:|!|:
*>B	*>B	*>B
8r	8r	8a/
=5	=5	=5
4CC/	(8G/L	4g/
.	8c/	.
8r	8e/J)	8g/
4C/	(8G/L	4cc\
.	8c/	.
8r	8e/J)	8b-\
=6	=6	=6
4FF/	(8A/L	4a/
.	8c/	.
8r	8f/J)	8cc\
4F\	(8A/L	4ff\
.	8c/	.
8r	8f/J)	8a/
=7	=7	=7
4C/	(8G/L	4g/
.	8c/	.
8r	8e/J)	8g/
4CC/	(8G/L	4cc\
.	8c/	.
8r	8e/J)	8b-\
=8	=8	=8
4FF/	(8A/L	4a/
.	8c/	.
8r	8f/J)	8cc\
4F\	(8A/L	4ff\
.	8c/	.
8r	8f/J)	16f/LL
.	.	16g/JJ
=9	=9	=9
4FF/	(8A/L	8.a/
.	8c/	.
.	.	16a/
8r	8f/J)	8a/
4F\	(8A/L	8.cc\
.	8c/	.
.	.	16cc\
8r	8f/J)	8cc\
=10	=10	=10
4FF/	(8A/L	8.a/
.	8c/	.
.	.	16a/
8r	8f/J)	8a/
4F\	(8A/L	4f/
.	8c/	.
8r	8f/J)	8f/
=11	=11	=11
4C/	(8B-/L	8.g/
.	8c/	.
.	.	16g/
8r	8e/J)	8g/
4CC/	(8B-/L	8cc\
.	8c/	8b-\
8r	8e/J)	8g/
=12	=12	=12
4FF/	(8A/L	4f/
.	8c/	.
8r	8f/J)	8r
4F\	4r	4r
==:|!	==:|!	==:|!
*-	*-	*-
!!!ENC: Craig Stuart Sapp
!!!END: 2004/06/28/
!!!EFL: 186/651
